assets/home-tab/Asset/DTH.svg

<svg width="26" height="26" viewBox="0 0 26 26" fill="none" xmlns="http://www.w3.org/2000/svg">
<path d="M7.09469 24.2528L4.57325 22.5808C-0.183107 19.4276 -1.43237 13.0987 1.7882 8.45306L2.15496 7.92566C2.87701 6.88207 4.33257 6.60153 5.39845 7.30848L21.2606 17.8229C22.3265 18.5299 22.613 19.955 21.891 20.9986L21.5242 21.526C18.3037 26.1829 11.8511 27.406 7.09469 24.2528Z" fill="#0066B4"/>
<path d="M11.278 15.5337C10.7738 15.1971 10.6477 14.535 10.9801 14.0413L14.1319 9.47414C14.4757 8.9804 15.1519 8.85696 15.6562 9.18238C16.1605 9.51903 16.2865 10.1811 15.9542 10.6748L12.8024 15.2419C12.4585 15.7357 11.7823 15.8703 11.278 15.5337Z" fill="#0066B4"/>
<path d="M19.8393 11.8531C19.633 11.7184 19.4726 11.5052 19.4038 11.2583C18.9797 9.78832 18.0399 8.50908 16.7448 7.64503C15.4612 6.7922 13.9025 6.41068 12.3552 6.56778C11.7478 6.62388 11.2091 6.19747 11.1518 5.61396C11.0945 5.01922 11.53 4.49182 12.126 4.43571C14.1775 4.2225 16.252 4.73869 17.9711 5.87205C19.6903 7.01663 20.951 8.72229 21.5126 10.686C21.6731 11.2583 21.3407 11.8531 20.7562 12.0102C20.4238 12.0775 20.0914 12.0214 19.8393 11.8531Z" fill="#0066B4"/>
<path d="M24.2862 11.2135C24.0685 11.0676 23.8965 10.8432 23.8278 10.5627C23.1974 7.88077 21.5699 5.55794 19.2433 4.00938C16.9282 2.47205 14.1317 1.85487 11.381 2.27006C10.7736 2.35983 10.212 1.95586 10.1203 1.37235C10.0286 0.788838 10.4412 0.238989 11.0486 0.149218C14.3609 -0.344524 17.7075 0.396089 20.4697 2.2364C23.2547 4.08793 25.2146 6.87084 25.971 10.0802C26.1085 10.6637 25.7418 11.236 25.1458 11.3706C24.8363 11.438 24.5269 11.3706 24.2862 11.2135Z" fill="#0066B4"/>
</svg>

<svg xmlns="http://www.w3.org/2000/svg" width="26" height="26" fill="none" viewBox="0 0 26 26"><path fill="#0066b4" d="M7.095 24.253 4.573 22.58c-4.756-3.153-6.005-9.482-2.785-14.128l.367-.527a2.37 2.37 0 0 1 3.243-.618l15.863 10.515a2.26 2.26 0 0 1 .63 3.176l-.367.527c-3.22 4.657-9.673 5.88-14.43 2.727"/><path fill="#0066b4" d="M11.278 15.534a1.067 1.067 0 0 1-.298-1.493l3.152-4.567a1.12 1.12 0 0 1 1.524-.292c.504.337.63 1 .298 1.493l-3.152 4.567a1.11 1.11 0 0 1-1.524.292m8.562-3.681a1.06 1.06 0 0 1-.436-.595 6.52 6.52 0 0 0-2.66-3.613 6.72 6.72 0 0 0-4.389-1.077c-.607.056-1.146-.37-1.203-.954a1.08 1.08 0 0 1 .974-1.178 8.97 8.97 0 0 1 5.845 1.436 8.66 8.66 0 0 1 3.542 4.814 1.07 1.07 0 0 1-.757 1.324 1.22 1.22 0 0 1-.917-.157"/><path fill="#0066b4" d="M24.286 11.214a1.1 1.1 0 0 1-.458-.651c-.63-2.682-2.258-5.005-4.585-6.554a11.18 11.18 0 0 0-7.862-1.739c-.607.09-1.169-.314-1.26-.898-.092-.583.32-1.133.928-1.223a13.4 13.4 0 0 1 9.42 2.087c2.786 1.852 4.746 4.635 5.502 7.844a1.07 1.07 0 0 1-.825 1.29c-.31.068-.62 0-.86-.156"/></svg>
